X: 2609
T: Sugar Candie
P: Earl of Angus and Arran
C:William Marshall
R:Strathspey (8x32)
B:RSCDS 26-9
Z:Anselm Lingnau <anselm@strathspey.org>
M:C
L:1/8
K:F
C|"F"F<F c2 "F/A"A>G F>A|"Gm"B>D "Bb"G>F "C7"E>C D>E|\
  "F"F<F c2 A>G F>A|"Gm"B<D "C7"G>E "F"F3 C|
  "F"F<F c2 "F/A"A>G F>A|"Gm"B>D "Bb"G>F "C7"E>C D>E|\
  "F"F<F c2 A>G F>A|"Gm"B<D "C7"G>E "F"F3||
c|"F"A>c F>c A>c F>e|f>F A>F "C7"E<G G>B|\
  "F"A>c F>c A>c f>a|"G"g>fe>d "C"c3 A|
  "Gm"B<d "C7"G>B "F"A<c "Dm"F>A|"Gm"G>AB>A "C"G>F"C7"E>C|\
  "F"F<A "Gm"G<B "F"A<c "Bb"B>d |"F"c<f "C7"e>g "F"f3|]
%%center Book26/2609-Sugar_Candie-AL.abc

%%sep 1 1 500
%%sep 1 1 500

